X:1
T:Lakes of Ponchartrain (3)
M:3/4
L:1/8
K:C
 A| G2 e d2 e| B2 A G2 D| E2 G G2 A| G3- G2 B| d2 Bd e^f| g2 g^f ed|\
 e2 ge dB| d3- d2 B| d2 Bd e^f| g2 g^f ed| e2 ge dB| d3- dB A| G2 e d2 e|\
 B2 A G2 D| E2 G G2 A| G3- G2||
